X: 31
T:Handsome Young Maidens
T:The Handsome Young Maidens
M:6/8
L:1/8
Q:140
C:Charlie Lennon
S:Musical Memories
D:Session from the Heart
K:A
g || aed cdB | Ace aga | bee dee | Bee bag|
aed cdB | Ace aga | bge dBE|1 BAG A2 g :|2BAG AdB |
| c2 A EAc | dff fed | cde aec| Bff fed | 
c2 A EAc | dff fed| cde aec| dBe A2 B |
c2 A EAc| dff fed | cde aec | Bff fed |
cAA eAA | dAA fed | ece fdf |gfg a3 ||
